SVG_Azure_Grouped/Application/App Property.svg

<?xml version="1.0" encoding="UTF-8" standalone="no"?>
<!-- Generated by Microsoft Visio, SVG Export App Property.svg Page-1 -->

<svg
   xmlns:dc="http://purl.org/dc/elements/1.1/"
   xmlns:cc="http://creativecommons.org/ns#"
   xmlns:rdf="http://www.w3.org/1999/02/22-rdf-syntax-ns#"
   xmlns:svg="http://www.w3.org/2000/svg"
   xmlns="http://www.w3.org/2000/svg"
   xmlns:sodipodi="http://sodipodi.sourceforge.net/DTD/sodipodi-0.dtd"
   xmlns:inkscape="http://www.inkscape.org/namespaces/inkscape"
   width="0.7874437in"
   height="0.78736174in"
   viewBox="0 0 56.695803 56.690002"
   xml:space="preserve"
   class="st6"
   version="1.1"
   id="svg59"
   sodipodi:docname="App Property.svg"
   style="font-size:12px;overflow:visible;color-interpolation-filters:sRGB;fill:none;fill-rule:evenodd;stroke-linecap:square;stroke-miterlimit:3"
   inkscape:version="0.92.5 (2060ec1f9f, 2020-04-08)"><metadata
   id="metadata65"><rdf:RDF><cc:Work
       rdf:about=""><dc:format>image/svg+xml</dc:format><dc:type
         rdf:resource="http://purl.org/dc/dcmitype/StillImage" /></cc:Work></rdf:RDF></metadata><defs
   id="defs63" /><sodipodi:namedview
   pagecolor="#ffffff"
   bordercolor="#666666"
   borderopacity="1"
   objecttolerance="10"
   gridtolerance="10"
   guidetolerance="10"
   inkscape:pageopacity="0"
   inkscape:pageshadow="2"
   inkscape:window-width="640"
   inkscape:window-height="480"
   id="namedview61"
   showgrid="false"
   inkscape:zoom="1.7280081"
   inkscape:cx="37.795362"
   inkscape:cy="22.93242"
   inkscape:window-x="0"
   inkscape:window-y="0"
   inkscape:window-maximized="0"
   inkscape:current-layer="svg59" />
	<style
   type="text/css"
   id="style2">
	<![CDATA[
		.st1 {fill:#a0a1a2;stroke:none;stroke-linecap:butt;stroke-width:11.7214}
		.st2 {fill:#1e1e1e;stroke:none;stroke-linecap:butt;stroke-width:11.7214}
		.st3 {fill:#59b4d9;stroke:none;stroke-linecap:butt;stroke-width:11.7214}
		.st4 {fill:#b8d432;stroke:none;stroke-linecap:butt;stroke-width:11.7214}
		.st5 {fill:#ffffff;fill-opacity:0.2;stroke:none;stroke-linecap:butt;stroke-width:11.7214}
		.st6 {fill:none;fill-rule:evenodd;font-size:12px;overflow:visible;stroke-linecap:square;stroke-miterlimit:3}
	]]>
	</style>

	<g
   id="g57"
   transform="translate(-11.72147,-11.7243)">
		<title
   id="title4">Page-1</title>
		<g
   id="group14838-1"
   transform="translate(11.7214,-34.0157)">
			<title
   id="title6">App Property.14838</title>
			<g
   id="group14839-2">
				<title
   id="title8">g22</title>
				<g
   id="shape14840-3">
					<title
   id="title10">path4</title>
					<path
   d="m 33.33,99.55 a 2.88067,2.87773 0 0 1 -2.88,2.88 H 2.88 A 2.88067,2.87773 0 0 1 0,99.55 V 48.61 a 2.88067,2.87773 0 0 1 2.88,-2.87 h 27.57 a 2.88067,2.87773 0 0 1 2.88,2.87 z"
   class="st1"
   id="path12"
   inkscape:connector-curvature="0"
   style="fill:#a0a1a2;stroke:none;stroke-width:11.72140026;stroke-linecap:butt" />
				</g>
				<g
   id="shape14841-5"
   transform="translate(4.89873,-22.4334)">
					<title
   id="title15">path6</title>
					<path
   d="m 0,98.81 a 3.62184,3.61814 0 0 1 3.62,-3.62 h 16.59 a 3.6237019,3.62 0 0 1 0,7.24 H 3.62 A 3.6207,3.61701 0 0 1 0,98.81 Z"
   class="st2"
   id="path17"
   inkscape:connector-curvature="0"
   style="fill:#1e1e1e;stroke:none;stroke-width:11.72140026;stroke-linecap:butt" />
				</g>
				<g
   id="shape14842-7"
   transform="translate(6.24372,-23.6228)">
					<title
   id="title20">circle8</title>
					<ellipse
   cx="2.4312"
   cy="100.001"
   rx="2.4312"
   ry="2.42872"
   class="st3"
   id="ellipse22"
   style="fill:#59b4d9;stroke:none;stroke-width:11.72140026;stroke-linecap:butt" />
				</g>
				<g
   id="shape14843-9"
   transform="translate(4.89873,-33.1812)">
					<title
   id="title25">path10</title>
					<path
   d="m 0,98.81 a 3.62184,3.61814 0 0 1 3.62,-3.62 h 16.59 a 3.6237019,3.62 0 0 1 0,7.24 H 3.62 A 3.62184,3.61814 0 0 1 0,98.81 Z"
   class="st2"
   id="path27"
   inkscape:connector-curvature="0"
   style="fill:#1e1e1e;stroke:none;stroke-width:11.72140026;stroke-linecap:butt" />
				</g>
				<g
   id="shape14844-11"
   transform="translate(6.24372,-34.3706)">
					<title
   id="title30">circle12</title>
					<ellipse
   cx="2.4312"
   cy="100.001"
   rx="2.4312"
   ry="2.42872"
   class="st3"
   id="ellipse32"
   style="fill:#59b4d9;stroke:none;stroke-width:11.72140026;stroke-linecap:butt" />
				</g>
				<g
   id="shape14845-13"
   transform="translate(4.89873,-43.9302)">
					<title
   id="title35">path14</title>
					<path
   d="m 0,98.81 a 3.62184,3.61814 0 0 1 3.62,-3.62 h 16.59 a 3.6237019,3.62 0 0 1 0,7.24 H 3.62 A 3.6207,3.61701 0 0 1 0,98.81 Z"
   class="st2"
   id="path37"
   inkscape:connector-curvature="0"
   style="fill:#1e1e1e;stroke:none;stroke-width:11.72140026;stroke-linecap:butt" />
				</g>
				<g
   id="shape14846-15"
   transform="translate(6.24372,-45.1196)">
					<title
   id="title40">circle16</title>
					<ellipse
   cx="2.4312"
   cy="100.001"
   rx="2.4312"
   ry="2.42872"
   class="st3"
   id="ellipse42"
   style="fill:#59b4d9;stroke:none;stroke-width:11.72140026;stroke-linecap:butt" />
				</g>
				<g
   id="shape14847-17"
   transform="translate(11.7259)">
					<title
   id="title45">path18</title>
					<path
   d="m 44.97,97.18 c 0,-2.89 -2.33,-5.24 -5.21,-5.24 -0.21,0 -0.43,0.02 -0.63,0.04 0.32,-1.17 0.49,-2.41 0.49,-3.69 0,-7.73 -6.21,-13.99 -13.88,-13.99 -6.12,0 -11.31,4 -13.16,9.54 A 9.31394,9.30444 -180 0 0 9.49,83.31 C 4.24,83.31 0,87.59 0,92.87 c 0,5.28 4.24,9.56 9.49,9.56 H 9.5 v 0 h 30.69 l -0.01,-0.03 c 2.68,-0.21 4.79,-2.46 4.79,-5.22 z"
   class="st4"
   id="path47"
   inkscape:connector-curvature="0"
   style="fill:#b8d432;stroke:none;stroke-width:11.72140026;stroke-linecap:butt" />
				</g>
				<g
   id="shape14848-19"
   transform="translate(11.7247)">
					<title
   id="title50">path20</title>
					<path
   d="m 14.53,102.43 a 9.58748,9.5777 0 0 1 -2.6,-4.67 c -1.18,-5.15 2,-10.27 7.11,-11.43 a 9.31508,9.30557 0 0 1 3.14,-0.17 c 0.47,-4.81 3.4,-9.09 7.78,-11.2 A 13.753,13.739 -180 0 0 25.74,74.3 c -6.12,0 -11.31,4 -13.16,9.54 A 9.30827,9.29877 -180 0 0 9.49,83.31 C 4.24,83.31 0,87.59 0,92.87 c 0,5.28 4.24,9.56 9.49,9.56 H 9.5 v 0 z"
   class="st5"
   id="path52"
   inkscape:connector-curvature="0"
   style="fill:#ffffff;fill-opacity:0.2;stroke:none;stroke-width:11.72140026;stroke-linecap:butt" />
				</g>
			</g>
		</g>
	</g>
</svg>

<?xml version="1.0" encoding="UTF-8" standalone="no"?>
<!DOCTYPE svg PUBLIC "-//W3C//DTD SVG 1.1//EN" "http://www.w3.org/Graphics/SVG/1.1/DTD/svg11.dtd">
<!-- Generated by Microsoft Visio, SVG Export App Property.svg Page-1 -->
<svg xmlns="http://www.w3.org/2000/svg" xmlns:xlink="http://www.w3.org/1999/xlink" xmlns:ev="http://www.w3.org/2001/xml-events"
		width="1.113in" height="1.42264in" viewBox="0 0 80.1358 102.43" xml:space="preserve" color-interpolation-filters="sRGB"
		class="st6">
	<style type="text/css">
	<![CDATA[
		.st1 {fill:#a0a1a2;stroke:none;stroke-linecap:butt;stroke-width:11.7214}
		.st2 {fill:#1e1e1e;stroke:none;stroke-linecap:butt;stroke-width:11.7214}
		.st3 {fill:#59b4d9;stroke:none;stroke-linecap:butt;stroke-width:11.7214}
		.st4 {fill:#b8d432;stroke:none;stroke-linecap:butt;stroke-width:11.7214}
		.st5 {fill:#ffffff;fill-opacity:0.2;stroke:none;stroke-linecap:butt;stroke-width:11.7214}
		.st6 {fill:none;fill-rule:evenodd;font-size:12px;overflow:visible;stroke-linecap:square;stroke-miterlimit:3}
	]]>
	</style>

	<g>
		<title>Page-1</title>
		<g id="group14461-1" transform="translate(11.7214,-34.0157)">
			<title>App Property.14461</title>
			<g id="group14462-2">
				<title>g22</title>
				<g id="shape14463-3">
					<title>path4</title>
					<path d="M33.33 99.55 A2.88067 2.87773 0 0 1 30.45 102.43 L2.88 102.43 A2.88067 2.87773 0 0 1 0 99.55 L0 48.61
								 A2.88067 2.87773 0 0 1 2.88 45.74 L30.45 45.74 A2.88067 2.87773 0 0 1 33.33 48.61 L33.33 99.55 Z"
							class="st1"/>
				</g>
				<g id="shape14464-5" transform="translate(4.89873,-22.4334)">
					<title>path6</title>
					<path d="M0 98.81 A3.62184 3.61814 0 0 1 3.62 95.19 L20.21 95.19 A3.62184 3.61814 0 0 1 20.21 102.43 L3.62 102.43
								 A3.6207 3.61701 0 0 1 0 98.81 Z" class="st2"/>
				</g>
				<g id="shape14465-7" transform="translate(6.24372,-23.6228)">
					<title>circle8</title>
					<ellipse cx="2.4312" cy="100.001" rx="2.4312" ry="2.42872" class="st3"/>
				</g>
				<g id="shape14466-9" transform="translate(4.89873,-33.1812)">
					<title>path10</title>
					<path d="M0 98.81 A3.62184 3.61814 0 0 1 3.62 95.19 L20.21 95.19 A3.62184 3.61814 0 0 1 20.21 102.43 L3.62 102.43
								 A3.62184 3.61814 0 0 1 0 98.81 Z" class="st2"/>
				</g>
				<g id="shape14467-11" transform="translate(6.24372,-34.3706)">
					<title>circle12</title>
					<ellipse cx="2.4312" cy="100.001" rx="2.4312" ry="2.42872" class="st3"/>
				</g>
				<g id="shape14468-13" transform="translate(4.89873,-43.9302)">
					<title>path14</title>
					<path d="M0 98.81 A3.62184 3.61814 0 0 1 3.62 95.19 L20.21 95.19 A3.62184 3.61814 0 0 1 20.21 102.43 L3.62 102.43
								 A3.6207 3.61701 0 0 1 0 98.81 Z" class="st2"/>
				</g>
				<g id="shape14469-15" transform="translate(6.24372,-45.1196)">
					<title>circle16</title>
					<ellipse cx="2.4312" cy="100.001" rx="2.4312" ry="2.42872" class="st3"/>
				</g>
				<g id="shape14470-17" transform="translate(11.7259,0)">
					<title>path18</title>
					<path d="M44.97 97.18 C44.97 94.29 42.64 91.94 39.76 91.94 C39.55 91.94 39.33 91.96 39.13 91.98 C39.45 90.81
								 39.62 89.57 39.62 88.29 C39.62 80.56 33.41 74.3 25.74 74.3 C19.62 74.3 14.43 78.3 12.58 83.84 A9.31394
								 9.30444 -180 0 0 9.49 83.31 C4.24 83.31 0 87.59 0 92.87 C0 98.15 4.24 102.43 9.49 102.43 L9.5 102.43
								 L9.5 102.43 L40.19 102.43 L40.18 102.4 C42.86 102.19 44.97 99.94 44.97 97.18 Z" class="st4"/>
				</g>
				<g id="shape14471-19" transform="translate(11.7247,0)">
					<title>path20</title>
					<path d="M14.53 102.43 A9.58748 9.5777 0 0 1 11.93 97.76 C10.75 92.61 13.93 87.49 19.04 86.33 A9.31508 9.30557
								 0 0 1 22.18 86.16 C22.65 81.35 25.58 77.07 29.96 74.96 A13.753 13.739 -180 0 0 25.74 74.3 C19.62
								 74.3 14.43 78.3 12.58 83.84 A9.30827 9.29877 -180 0 0 9.49 83.31 C4.24 83.31 0 87.59 0 92.87 C0
								 98.15 4.24 102.43 9.49 102.43 L9.5 102.43 L9.5 102.43 L14.53 102.43 Z" class="st5"/>
				</g>
			</g>
		</g>
	</g>
</svg>
